packages/web/public/tokens/stkd-scrt.svg

<svg fill="none" height="40" viewBox="0 0 40 40" width="40" xmlns="http://www.w3.org/2000/svg" xmlns:xlink="http://www.w3.org/1999/xlink"><filter id="a" filterUnits="userSpaceOnUse"><feBlend in="SourceGraphic" in2="BackgroundImageFix" mode="normal" result="shape"/><feColorMatrix in="SourceAlpha" result="hardAlpha" type="matrix" values="0 0 0 0 0 0 0 0 0 0 0 0 0 0 0 0 0 0 127 0"/><feOffset dy="4.33333"/><feGaussianBlur stdDeviation="1.73333"/><feComposite in2="hardAlpha" k2="-1" k3="1" operator="arithmetic"/><feColorMatrix type="matrix" values="0 0 0 0 0 0 0 0 0 0 0 0 0 0 0 0 0 0 0.8 0"/><feBlend in2="shape" mode="normal" result="effect1_innerShadow_4159_2699"/></filter><filter id="b"><feBlend in="SourceGraphic" in2="BackgroundImageFix" mode="normal" result="shape"/><feColorMatrix in="SourceAlpha" result="hardAlpha" type="matrix" values="0 0 0 0 0 0 0 0 0 0 0 0 0 0 0 0 0 0 127 0"/><feOffset dy="4.33333"/><feGaussianBlur stdDeviation="1.73333"/><feComposite in2="hardAlpha" k2="-1" k3="1" operator="arithmetic"/><feColorMatrix type="matrix" values="0 0 0 0 0 0 0 0 0 0 0 0 0 0 0 0 0 0 0.8 0"/><feBlend in2="shape" mode="normal" result="effect1_innerShadow_4159_2699"/></filter><linearGradient id="c"><stop offset="0" stop-color="#b977ff"/><stop offset="1" stop-color="#606dc8"/></linearGradient><linearGradient id="d" gradientUnits="userSpaceOnUse" x1="21.0726" x2="21.0726" xlink:href="#c" y1="1" y2="38.8549"/><linearGradient id="e" gradientUnits="userSpaceOnUse" x1="2.42902" x2="8.99054" xlink:href="#c" y1="2.41956" y2="14.6908"/><linearGradient id="f" gradientUnits="userSpaceOnUse" x1="7.99745" x2="7.99745" y1="3.42902" y2="13.1124"><stop offset="0" stop-color="#747474"/><stop offset=".211458" stop-color="#4f4e4e"/><stop offset="1" stop-color="#020202"/></linearGradient><linearGradient id="g" gradientUnits="userSpaceOnUse" x1="7.82512" x2="8.26288" y1="5.18225" y2="12.6567"><stop offset="0"/><stop offset="1" stop-color="#0e0e0e"/></linearGradient><linearGradient id="h" gradientUnits="userSpaceOnUse" x1="4.64708" x2="4.21048" y1="11.6583" y2="4.18365"><stop offset="0" stop-color="#444"/><stop offset=".789583" stop-color="#a2a2a2"/><stop offset="1" stop-color="#adadad"/></linearGradient><path d="m21.0726 38.8549c10.4533 0 18.9274-8.4741 18.9274-18.9275 0-10.4533-8.4741-18.9274-18.9274-18.9274-10.4534 0-18.92746 8.4741-18.92746 18.9274 0 10.4534 8.47406 18.9275 18.92746 18.9275z" fill="url(#d)"/><path d="m21.0726 37.4353c9.6693 0 17.5079-7.8385 17.5079-17.5079 0-9.6693-7.8386-17.50784-17.5079-17.50784-9.6694 0-17.5079 7.83854-17.5079 17.50784 0 9.6694 7.8385 17.5079 17.5079 17.5079z" fill="#000"/><path d="m6.13565 14.6908c3.38862 0 6.13565-2.747 6.13565-6.1356 0-3.38862-2.74703-6.13564-6.13565-6.13564-3.38863 0-6.13565 2.74702-6.13565 6.13564 0 3.3886 2.74702 6.1356 6.13565 6.1356z" fill="url(#e)"/><g filter="url(#a)"><path d="m4.83313 3.62797c-.31738 1.50821.1894 3.05035 2.01969 4.55367 2.36593 1.94326 2.48135 2.72646 1.44264 4.93076 1.96204-.8701 3.66434-3.27751 2.65444-6.46799-1.09639-2.55238-3.75084-3.71254-6.11677-3.01644z" fill="url(#f)"/></g><g filter="url(#b)"><path d="m7.72104 13.324c.32104-1.5141-.19158-3.0621-2.0429-4.5713-2.39316-1.95079-2.50988-2.73694-1.45925-4.94978-1.98454.8735-3.706422 3.29016-2.68496 6.49298 1.109 2.5622 3.79399 3.7268 6.18711 3.0281z" fill="#070707"/><path d="m5.67319 8.75882c.92492.75397 1.51495 1.51728 1.83378 2.28068.31814.7618.3664 1.5241.20735 2.2782-2.38801.6948-5.06613-.4679-6.17297-3.0246-1.016491-3.18788.68831-5.59517 2.66136-6.47437-.51889 1.09586-.74987 1.84353-.55318 2.55943.19773.71971.82722 1.40536 2.02366 2.38066z" stroke="#fff" stroke-opacity=".1" stroke-width=".216667"/></g><path d="m4.836 3.57855c1.75372.34993 2.86152.84815 4.22691 2.71695 1.45259 2.5876.90057 5.2183-.71173 6.7421.93202-2.3919.87151-2.8607-1.37994-4.80141-2.25145-1.94069-2.38631-3.40732-2.13524-4.65764z" fill="url(#g)" fill-opacity=".8"/><path d="m7.6443 13.262c-1.75849-.35-2.86928-.8482-4.23836-2.717-1.45649-2.58756-.8629-5.21829.75379-6.74208-.93455 2.39193-.91401 2.8607 1.34353 4.8014 2.25754 1.94068 2.39274 3.40728 2.14104 4.65768z" fill="url(#h)" fill-opacity=".5"/><path d="m27.1496 20.668c-1.2811-1.144-2.9586-1.908-4.5841-2.648l-.012-.004c-2.8666-1.308-5.3448-2.44-5.1687-5.116.0761-1.02.8168-1.636 1.4253-1.968.6846-.376 1.5935-.6 2.4342-.6.1001 0 .2002.004.2963.008 2.4462.164 4.3759 1.2 6.2616 3.352l.1121.132.1321-.112.7367-.64.1321-.116-.1161-.132c-2.1019-2.408-4.3839-3.62-7.1744-3.808-.1201-.012-.2483-.016-.3884-.016-.0841 0-.1761 0-.2722.004h-.1201c-1.8297 0-3.8355.6-5.3609 1.608-1.8216 1.204-2.8425 2.86-2.8705 4.664-.0721 4.388 3.5191 5.864 6.686 7.172l.008.004.032.012c2.8025 1.16 5.2207 2.16 5.1687 4.84-.0241 1.768-2.5543 2.744-4.2919 2.744h-.0721-.1721v.004c-2.5904-.076-4.9044-1.192-6.8782-3.308l-.1201-.128-.1281.116-.7167.664-.1281.12.1201.128c2.242 2.412 5.0085 3.708 8.0032 3.744h.1361c1.9338 0 4.0357-.52 5.6211-1.396 1.9858-1.084 3.1428-2.664 3.2629-4.448.1361-1.96-.5164-3.556-1.9938-4.876zm-9.2963-3.816c1.141.976 2.6864 1.676 4.1797 2.352l.0281.012c1.5814.728 3.0787 1.416 4.1637 2.372 1.2011 1.056 1.7095 2.28 1.6014 3.852-.1 1.556-1.2571 2.596-2.31 3.224.2041-.416.3162-.868.3283-1.348.024-1.616-.5966-2.908-1.9018-3.956-1.141-.916-2.6543-1.536-4.1197-2.14-3.0467-1.252-5.9253-2.436-5.8732-5.932.016-1.344.8247-2.616 2.278-3.58.048-.032.0961-.064.1481-.096-.1721.376-.2682.768-.2922 1.18-.1161 1.62.4644 2.948 1.7696 4.06z" fill="#fff"/></svg>

<!-- eslint-disable max-len -->
<svg
  width="40"
  height="40"
  viewBox="0 0 40 40"
  fill="none"
  xmlns="http://www.w3.org/2000/svg"
>
  <path
    d="M21.0726 38.8549C31.5259 38.8549 40 30.3808 40 19.9274C40 9.4741 31.5259 1 21.0726 1C10.6192 1 2.14514 9.4741 2.14514 19.9274C2.14514 30.3808 10.6192 38.8549 21.0726 38.8549Z"
    fill="url(#paint0_linear_4159_2699)"
  />
  <path
    d="M21.0726 37.4353C30.7419 37.4353 38.5805 29.5968 38.5805 19.9274C38.5805 10.2581 30.7419 2.41956 21.0726 2.41956C11.4032 2.41956 3.5647 10.2581 3.5647 19.9274C3.5647 29.5968 11.4032 37.4353 21.0726 37.4353Z"
    fill="black"
  />
  <path
    d="M6.13565 14.6908C9.52427 14.6908 12.2713 11.9438 12.2713 8.5552C12.2713 5.16658 9.52427 2.41956 6.13565 2.41956C2.74702 2.41956 0 5.16658 0 8.5552C0 11.9438 2.74702 14.6908 6.13565 14.6908Z"
    fill="url(#paint1_linear_4159_2699)"
  />
  <g filter="url(#filter0_i_4159_2699)">
    <path
      d="M4.83313 3.62797C4.51575 5.13618 5.02253 6.67832 6.85282 8.18164C9.21875 10.1249 9.33417 10.9081 8.29546 13.1124C10.2575 12.2423 11.9598 9.83489 10.9499 6.64441C9.85351 4.09203 7.19906 2.93187 4.83313 3.62797Z"
      fill="url(#paint2_linear_4159_2699)"
    />
  </g>
  <g filter="url(#filter1_i_4159_2699)">
    <path
      d="M7.72104 13.324C8.04208 11.8099 7.52946 10.2619 5.67814 8.7527C3.28498 6.80191 3.16826 6.01576 4.21889 3.80292C2.23435 4.67642 0.512468 7.09308 1.53393 10.2959C2.64293 12.8581 5.32792 14.0227 7.72104 13.324Z"
      fill="#070707"
    />
    <path
      d="M5.67319 8.75882C6.59811 9.51279 7.18814 10.2761 7.50697 11.0395C7.82511 11.8013 7.87337 12.5636 7.71432 13.3177C5.32631 14.0125 2.64819 12.8498 1.54135 10.2931C0.524859 7.10522 2.22966 4.69793 4.20271 3.81873C3.68382 4.91459 3.45284 5.66226 3.64953 6.37816C3.84726 7.09787 4.47675 7.78352 5.67319 8.75882Z"
      stroke="white"
      stroke-opacity="0.1"
      stroke-width="0.216667"
    />
  </g>
  <path
    d="M4.836 3.57855C6.58972 3.92848 7.69752 4.4267 9.06291 6.2955C10.5155 8.8831 9.96348 11.5138 8.35118 13.0376C9.2832 10.6457 9.22269 10.1769 6.97124 8.23619C4.71979 6.2955 4.58493 4.82887 4.836 3.57855Z"
    fill="url(#paint3_linear_4159_2699)"
    fill-opacity="0.8"
  />
  <path
    d="M7.6443 13.262C5.88581 12.912 4.77502 12.4138 3.40594 10.545C1.94945 7.95744 2.54304 5.32671 4.15973 3.80292C3.22518 6.19485 3.24572 6.66362 5.50326 8.60432C7.7608 10.545 7.896 12.0116 7.6443 13.262Z"
    fill="url(#paint4_linear_4159_2699)"
    fill-opacity="0.5"
  />

  <path
    d="M27.1496 20.668C25.8685 19.524 24.191 18.76 22.5655 18.02L22.5535 18.016C19.6869 16.708 17.2087 15.576 17.3848 12.9C17.4609 11.88 18.2016 11.264 18.8101 10.932C19.4947 10.556 20.4036 10.332 21.2443 10.332C21.3444 10.332 21.4445 10.336 21.5406 10.34C23.9868 10.504 25.9165 11.54 27.8022 13.692L27.9143 13.824L28.0464 13.712L28.7831 13.072L28.9152 12.956L28.7991 12.824C26.6972 10.416 24.4152 9.204 21.6247 9.016C21.5046 9.004 21.3764 9 21.2363 9C21.1522 9 21.0602 9 20.9641 9.004H20.844C19.0143 9.004 17.0085 9.604 15.4831 10.612C13.6615 11.816 12.6406 13.472 12.6126 15.276C12.5405 19.664 16.1317 21.14 19.2986 22.448L19.3066 22.452L19.3386 22.464C22.1411 23.624 24.5593 24.624 24.5073 27.304C24.4832 29.072 21.953 30.048 20.2154 30.048H20.1433H19.9712V30.052C17.3808 29.976 15.0668 28.86 13.093 26.744L12.9729 26.616L12.8448 26.732L12.1281 27.396L12 27.516L12.1201 27.644C14.3621 30.056 17.1286 31.352 20.1233 31.388H20.2594C22.1932 31.388 24.2951 30.868 25.8805 29.992C27.8663 28.908 29.0233 27.328 29.1434 25.544C29.2795 23.584 28.627 21.988 27.1496 20.668ZM17.8533 16.852C18.9943 17.828 20.5397 18.528 22.033 19.204L22.0611 19.216C23.6425 19.944 25.1398 20.632 26.2248 21.588C27.4259 22.644 27.9343 23.868 27.8262 25.44C27.7262 26.996 26.5691 28.036 25.5162 28.664C25.7203 28.248 25.8324 27.796 25.8445 27.316C25.8685 25.7 25.2479 24.408 23.9427 23.36C22.8017 22.444 21.2884 21.824 19.823 21.22C16.7763 19.968 13.8977 18.784 13.9498 15.288C13.9658 13.944 14.7745 12.672 16.2278 11.708C16.2758 11.676 16.3239 11.644 16.3759 11.612C16.2038 11.988 16.1077 12.38 16.0837 12.792C15.9676 14.412 16.5481 15.74 17.8533 16.852Z"
    fill="white"
  />
  <filter
    id="filter0_i_4159_2699"
    filterUnits="userSpaceOnUse"
  >
    <feBlend
      mode="normal"
      in="SourceGraphic"
      in2="BackgroundImageFix"
      result="shape"
    />
    <feColorMatrix
      in="SourceAlpha"
      type="matrix"
      values="0 0 0 0 0 0 0 0 0 0 0 0 0 0 0 0 0 0 127 0"
      result="hardAlpha"
    />
    <feOffset dy="4.33333" />
    <feGaussianBlur stdDeviation="1.73333" />
    <feComposite
      in2="hardAlpha"
      operator="arithmetic"
      k2="-1"
      k3="1"
    />
    <feColorMatrix
      type="matrix"
      values="0 0 0 0 0 0 0 0 0 0 0 0 0 0 0 0 0 0 0.8 0"
    />
    <feBlend
      mode="normal"
      in2="shape"
      result="effect1_innerShadow_4159_2699"
    />
  </filter>
  <filter
    id="filter1_i_4159_2699"
  >
    <feBlend
      mode="normal"
      in="SourceGraphic"
      in2="BackgroundImageFix"
      result="shape"
    />
    <feColorMatrix
      in="SourceAlpha"
      type="matrix"
      values="0 0 0 0 0 0 0 0 0 0 0 0 0 0 0 0 0 0 127 0"
      result="hardAlpha"
    />
    <feOffset dy="4.33333" />
    <feGaussianBlur stdDeviation="1.73333" />
    <feComposite
      in2="hardAlpha"
      operator="arithmetic"
      k2="-1"
      k3="1"
    />
    <feColorMatrix
      type="matrix"
      values="0 0 0 0 0 0 0 0 0 0 0 0 0 0 0 0 0 0 0.8 0"
    />
    <feBlend
      mode="normal"
      in2="shape"
      result="effect1_innerShadow_4159_2699"
    />
  </filter>
  <linearGradient
    id="paint0_linear_4159_2699"
    x1="21.0726"
    y1="1"
    x2="21.0726"
    y2="38.8549"
    gradientUnits="userSpaceOnUse"
  >
    <stop stop-color="#B977FF" />
    <stop
      offset="1"
      stop-color="#606DC8"
    />
  </linearGradient>
  <linearGradient
    id="paint1_linear_4159_2699"
    x1="2.42902"
    y1="2.41956"
    x2="8.99054"
    y2="14.6908"
    gradientUnits="userSpaceOnUse"
  >
    <stop stop-color="#B977FF" />
    <stop
      offset="1"
      stop-color="#606DC8"
    />
  </linearGradient>
  <linearGradient
    id="paint2_linear_4159_2699"
    x1="7.99745"
    y1="3.42902"
    x2="7.99745"
    y2="13.1124"
    gradientUnits="userSpaceOnUse"
  >
    <stop stop-color="#747474" />
    <stop
      offset="0.211458"
      stop-color="#4F4E4E"
    />
    <stop
      offset="1"
      stop-color="#020202"
    />
  </linearGradient>
  <linearGradient
    id="paint3_linear_4159_2699"
    x1="7.82512"
    y1="5.18225"
    x2="8.26288"
    y2="12.6567"
    gradientUnits="userSpaceOnUse"
  >
    <stop />
    <stop
      offset="1"
      stop-color="#0E0E0E"
    />
  </linearGradient>
  <linearGradient
    id="paint4_linear_4159_2699"
    x1="4.64708"
    y1="11.6583"
    x2="4.21048"
    y2="4.18365"
    gradientUnits="userSpaceOnUse"
  >
    <stop stop-color="#444444" />
    <stop
      offset="0.789583"
      stop-color="#A2A2A2"
    />
    <stop
      offset="1"
      stop-color="#ADADAD"
    />
  </linearGradient>
</svg>
